X: 11
T:Draught of Ale
R:jig
Z:Boston
M:6/8
L:1/8
Q:3/8=120
K:G
D|GBA G2B|def gdB|GBA G2B|AFD AFD|GBA G2B|def gfg|
edB dBA|BGG G2:|d|efe edB|def gfg|efe edB|
dBA ABd|efe edB|def gfg|edB dBA|BGG G2:|
